X:13397
T:Polska
S:Thorbj\"orn Eiriksson
R:Polska
O:Sweden
M:3/4
A:J\"amtland
K:Dm
B| A2 AG A^c | d2 d^c de \
|1 f2 fe (3d^cd | ef e^c AB :|2 \
f2 (3fed fg| a2 a4 :|
|:f/g/ |\
a2 a2 {ab}a>e | f2 f>d e2 | ef e^c Ac \
|1 d^c de fg :|2 d2 d4 :|
